;FLAVOR:RepRap
;TIME:1922
;Filament used: 0.879964m
;Layer height: 0.1
;Generated with Cura_SteamEngine 2.5.0
M190 S50
M104 S210
M109 S210
 G92 E0 ;
 M565 Z-1 ;
 G1 Z5 F5000 ;
 G29 ;

;LAYER_COUNT:148
;LAYER:0
M107
G0 F1800 X101.303 Y111.155 Z0.3
;TYPE:SKIRT
G1 F900 X101.612 Y110.935 E0.01892
G1 X101.959 Y110.783 E0.03782
G1 X102.5 Y110.7 E0.06513
G1 X122.5 Y110.7 E1.06293
G1 X122.877 Y110.74 E1.08185
G1 X123.237 Y110.858 E1.10075
G1 X123.564 Y111.048 E1.11962
G1 X123.845 Y111.303 E1.13855
G1 X124.065 Y111.612 E1.15747
G1 X124.217 Y111.959 E1.17637
G1 X124.3 Y112.5 E1.20368
G1 X124.3 Y132.5 E2.20148
G1 X124.26 Y132.877 E2.2204
G1 X124.142 Y133.237 E2.2393
G1 X123.952 Y133.564 E2.25817
G1 X123.697 Y133.845 E2.2771
G1 X123.388 Y134.065 E2.29602
G1 X123.041 Y134.217 E2.31492
G1 X122.5 Y134.3 E2.34223
G1 X102.5 Y134.3 E3.34003
G1 X102.123 Y134.26 E3.35895
G1 X101.763 Y134.142 E3.37785
G1 X101.436 Y133.952 E3.39671
G1 X101.155 Y133.697 E3.41565
G1 X100.935 Y133.388 E3.43457
G1 X100.783 Y133.041 E3.45347
G1 X100.7 Y132.5 E3.48078
G1 X100.7 Y112.5 E4.47858
G1 X100.74 Y112.123 E4.49749
G1 X100.858 Y111.763 E4.5164
G1 X101.048 Y111.436 E4.53526
G1 X101.303 Y111.155 E4.55419
G0 F1800 X102.5 Y111.1
G1 F900 X122.5 Y111.1 E5.552
G1 X122.832 Y111.14 E5.56868
G1 X123.144 Y111.257 E5.58531
G1 X123.421 Y111.445 E5.60201
G1 X123.644 Y111.693 E5.61865
G1 X123.803 Y111.987 E5.63532
G1 X123.887 Y112.311 E5.65202
G1 X123.9 Y112.5 E5.66147
G1 X123.9 Y132.5 E6.65928
G1 X123.86 Y132.832 E6.67596
G1 X123.743 Y133.144 E6.69258
G1 X123.555 Y133.421 E6.70929
G1 X123.307 Y133.644 E6.72593
G1 X123.013 Y133.803 E6.7426
G1 X122.689 Y133.887 E6.7593
G1 X122.5 Y133.9 E6.76875
G1 X102.5 Y133.9 E7.76656
G1 X102.168 Y133.86 E7.78324
G1 X101.856 Y133.743 E7.79986
G1 X101.579 Y133.555 E7.81656
G1 X101.356 Y133.307 E7.8332
G1 X101.197 Y133.013 E7.84988
G1 X101.113 Y132.689 E7.86658
G1 X101.1 Y132.5 E7.87603
G1 X101.1 Y112.5 E8.87383
G1 X101.14 Y112.168 E8.89052
G1 X101.257 Y111.856 E8.90714
G1 X101.445 Y111.579 E8.92384
G1 X101.693 Y111.356 E8.94048
G1 X101.987 Y111.197 E8.95716
G1 X102.311 Y111.113 E8.97386
G1 X102.5 Y111.1 E8.98331
G0 F1800 X102.5 Y111.5
G1 F900 X122.5 Y111.5 E9.98111
G1 X122.779 Y111.54 E9.99517
G1 X123.036 Y111.656 E10.00924
G1 X123.251 Y111.839 E10.02333
G1 X123.405 Y112.075 E10.03739
G1 X123.488 Y112.345 E10.05148
G1 X123.5 Y112.5 E10.05923
G1 X123.5 Y132.5 E11.05704
G1 X123.46 Y132.779 E11.0711
G1 X123.344 Y133.036 E11.08517
G1 X123.161 Y133.251 E11.09925
G1 X122.925 Y133.405 E11.11331
G1 X122.655 Y133.488 E11.12741
G1 X122.5 Y133.5 E11.13516
G1 X102.5 Y133.5 E12.13297
G1 X102.221 Y133.46 E12.14703
G1 X101.964 Y133.344 E12.16109
G1 X101.749 Y133.161 E12.17518
G1 X101.595 Y132.925 E12.18924
G1 X101.512 Y132.655 E12.20333
G1 X101.5 Y132.5 E12.21109
G1 X101.5 Y112.5 E13.20889
G1 X101.54 Y112.221 E13.22295
G1 X101.656 Y111.964 E13.23702
G1 X101.839 Y111.749 E13.25111
G1 X102.075 Y111.595 E13.26517
G1 X102.345 Y111.512 E13.27926
G1 X102.5 Y111.5 E13.28701
G0 F1800 X102.5 Y111.9
G1 F900 X122.5 Y111.9 E14.28482
G1 X122.715 Y111.94 E14.29573
G1 X122.901 Y112.053 E14.30659
G1 X123.034 Y112.226 E14.31747
G1 X123.1 Y112.5 E14.33153
G1 X123.1 Y132.5 E15.32934
G1 X123.06 Y132.715 E15.34025
G1 X122.947 Y132.901 E15.35111
G1 X122.774 Y133.034 E15.36199
G1 X122.5 Y133.1 E15.37605
G1 X102.5 Y133.1 E16.37386
G1 X102.285 Y133.06 E16.38477
G1 X102.099 Y132.947 E16.39563
G1 X101.966 Y132.774 E16.40651
G1 X101.9 Y132.5 E16.42057
G1 X101.9 Y112.5 E17.41838
G1 X101.94 Y112.285 E17.42929
G1 X102.053 Y112.099 E17.44015
G1 X102.226 Y111.966 E17.45103
G1 X102.5 Y111.9 E17.46509
G0 F1800 X102.3 Y112.5
G1 F900 X102.339 Y112.381 E17.47134
G1 X102.5 Y112.3 E17.48033
G1 X122.5 Y112.3 E18.47814
G1 X122.619 Y112.339 E18.48439
G1 X122.7 Y112.5 E18.49338
G1 X122.7 Y132.5 E19.49118
G1 X122.661 Y132.619 E19.49743
G1 X122.5 Y132.7 E19.50642
G1 X102.5 Y132.7 E20.50422
G1 X102.381 Y132.661 E20.51047
G1 X102.3 Y132.5 E20.51946
G1 X102.3 Y112.5 E21.51727
G0 F1800 X103.5 Y113.5
;TYPE:WALL-INNER
G1 F900 X110.756 Y113.5 E21.87927
G1 X111.065 Y113.5 E21.89469
G1 X111.185 Y113.5 E21.90067
G1 X111.065 Y113.601
G1 X110.873 Y113.843 E21.91089
G1 X110.82 Y113.909 E21.91511
G1 X110.638 Y114.26 E21.93484
G1 X110.532 Y114.632 E21.95413
G1 X110.496 Y115.024 E21.97377
G1 X110.542 Y115.418 E21.99356
G1 X110.658 Y115.789 E22.01296
G1 X110.847 Y116.133 E22.03254
G1 X111.101 Y116.436 E22.05226
G1 X111.41 Y116.681 E22.07194
G1 X111.758 Y116.861 E22.09148
G1 X112.133 Y116.97 E22.11097
G1 X112.525 Y117.004 E22.1306
G1 X112.917 Y116.96 E22.15028
G1 X113.288 Y116.841 E22.16972
G1 X113.632 Y116.654 E22.18925
G1 X113.935 Y116.4 E22.20897
G1 X114.18 Y116.092 E22.22861
G1 X114.362 Y115.741 E22.24834
G1 X114.468 Y115.369 E22.26763
G1 X114.504 Y114.975 E22.28737
G1 X114.458 Y114.583 E22.30706
G1 X114.342 Y114.212 E22.32646
G1 X114.166 Y113.891 E22.34472
G1 X114.153 Y113.868 E22.34604
G1 X113.899 Y113.565 E22.36576
G1 X113.817 Y113.5 E22.37098
G1 X113.899 Y113.5
G1 X114.153 Y113.5
G1 X114.18 Y113.5 E22.37229
G1 X121.5 Y113.5 E22.73748
G1 X121.5 Y120.756 E23.09948
G1 X121.5 Y121.065 E23.1149
G1 X121.5 Y121.185 E23.12089
G1 X121.399 Y121.065
G1 X121.157 Y120.873 E23.1311
G1 X121.091 Y120.82 E23.13532
G1 X120.74 Y120.638 E23.15505
G1 X120.368 Y120.532 E23.17435
G1 X119.976 Y120.496 E23.19399
G1 X119.582 Y120.542 E23.21378
G1 X119.211 Y120.658 E23.23317
G1 X118.867 Y120.847 E23.25275
G1 X118.564 Y121.101 E23.27248
G1 X118.319 Y121.41 E23.29215
G1 X118.139 Y121.758 E23.3117
G1 X118.03 Y122.133 E23.33118
G1 X117.996 Y122.525 E23.35081
G1 X118.04 Y122.917 E23.37049
G1 X118.159 Y123.288 E23.38993
G1 X118.346 Y123.632 E23.40946
G1 X118.6 Y123.935 E23.42919
G1 X118.908 Y124.18 E23.44882
G1 X119.259 Y124.362 E23.46855
G1 X119.631 Y124.468 E23.48785
G1 X120.025 Y124.504 E23.50759
G1 X120.417 Y124.458 E23.52728
G1 X120.788 Y124.342 E23.54667
G1 X121.109 Y124.166 E23.56493
G1 X121.132 Y124.153 E23.56625
G1 X121.435 Y123.899 E23.58598
G1 X121.5 Y123.817 E23.5912
G1 X121.5 Y123.899
G1 X121.5 Y124.153
G1 X121.5 Y124.18 E23.5925
G1 X121.5 Y131.5 E23.95769
G1 X114.244 Y131.5 E24.3197
G1 X113.935 Y131.5 E24.33511
G1 X113.815 Y131.5 E24.3411
G1 X113.935 Y131.399
G1 X114.127 Y131.157 E24.35131
G1 X114.18 Y131.091 E24.35554
G1 X114.362 Y130.74 E24.37526
G1 X114.468 Y130.368 E24.39456
G1 X114.504 Y129.976 E24.4142
G1 X114.458 Y129.582 E24.43399
G1 X114.342 Y129.211 E24.45338
G1 X114.153 Y128.867 E24.47296
G1 X113.899 Y128.564 E24.49269
G1 X113.59 Y128.319 E24.51236
G1 X113.242 Y128.139 E24.53191
G1 X112.867 Y128.03 E24.55139
G1 X112.475 Y127.996 E24.57102
G1 X112.083 Y128.04 E24.5907
G1 X111.712 Y128.159 E24.61014
G1 X111.368 Y128.346 E24.62968
G1 X111.065 Y128.6 E24.6494
G1 X110.82 Y128.908 E24.66904
G1 X110.638 Y129.259 E24.68876
G1 X110.532 Y129.631 E24.70806
G1 X110.496 Y130.025 E24.7278
G1 X110.542 Y130.417 E24.74749
G1 X110.658 Y130.788 E24.76688
G1 X110.834 Y131.109 E24.78515
G1 X110.847 Y131.132 E24.78646
G1 X111.101 Y131.435 E24.80619
G1 X111.183 Y131.5 E24.81141
G1 X111.101 Y131.5
G1 X110.847 Y131.5
G1 X110.82 Y131.5 E24.81271
G1 X103.5 Y131.5 E25.17791
G1 X103.5 Y124.244 E25.53991
G1 X103.5 Y123.935 E25.55533
G1 X103.5 Y123.815 E25.56131
G1 X103.601 Y123.935
G1 X103.843 Y124.127 E25.57153
G1 X103.909 Y124.18 E25.57575
G1 X104.26 Y124.362 E25.59548
G1 X104.632 Y124.468 E25.61477
G1 X105.024 Y124.504 E25.63441
G1 X105.418 Y124.458 E25.6542
G1 X105.789 Y124.342 E25.6736
G1 X106.133 Y124.153 E25.69318
G1 X106.436 Y123.899 E25.7129
G1 X106.681 Y123.59 E25.73258
G1 X106.861 Y123.242 E25.75212
G1 X106.97 Y122.867 E25.77161
G1 X107.004 Y122.475 E25.79124
G1 X106.96 Y122.083 E25.81092
G1 X106.841 Y121.712 E25.83036
G1 X106.654 Y121.368 E25.84989
G1 X106.4 Y121.065 E25.86962
G1 X106.092 Y120.82 E25.88925
G1 X105.741 Y120.638 E25.90898
G1 X105.369 Y120.532 E25.92827
G1 X104.975 Y120.496 E25.94801
G1 X104.583 Y120.542 E25.9677
G1 X104.212 Y120.658 E25.9871
G1 X103.891 Y120.834 E26.00536
G1 X103.868 Y120.847 E26.00668
G1 X103.565 Y121.101 E26.0264
G1 X103.5 Y121.183 E26.03162
G1 X103.5 Y121.101
G1 X103.5 Y120.847
G1 X103.5 Y120.82 E26.03293
G1 X103.5 Y113.5 E26.39812
G0 F1800 X103.1 Y113.1
G1 F900 X111.955 Y113.1 E26.8399
G1 X112.167 Y113.1 E26.85048
G1 X112.48 Y113.1 E26.86609
G1 X112.794 Y113.1 E26.88176
G1 X113.055 Y113.1 E26.89478
G1 X121.9 Y113.1 E27.33606
G1 X121.9 Y121.955 E27.77783
G1 X121.9 Y122.167 E27.78841
G1 X121.9 Y122.48 E27.80403
G1 X121.9 Y122.794 E27.81969
G1 X121.9 Y123.055 E27.83271
G1 X121.9 Y131.9 E28.27399
G1 X113.045 Y131.9 E28.71577
G1 X112.833 Y131.9 E28.72635
G1 X112.52 Y131.9 E28.74196
G1 X112.206 Y131.9 E28.75763
G1 X111.945 Y131.9 E28.77065
G1 X103.1 Y131.9 E29.21193
G1 X103.1 Y123.045 E29.65371
G1 X103.1 Y122.833 E29.66428
G1 X103.1 Y122.52 E29.6799
G1 X103.1 Y122.206 E29.69556
G1 X103.1 Y121.945 E29.70859
G1 X103.1 Y113.1 E30.14986
G1 F2400 E29.14986
G1 Z0.375
G0 F1800 X110.927 Y114.706 Z0.375
G1 Z0.3
G1 F2400 E30.14986
G1 F900 X110.898 Y115.019 E30.16599
G1 X110.935 Y115.334 E30.18181
G1 X111.028 Y115.631 E30.19734
G1 X111.179 Y115.906 E30.21299
G1 X111.382 Y116.148 E30.22875
G1 X111.628 Y116.344 E30.24444
G1 X111.907 Y116.488 E30.2601
G1 X112.207 Y116.575 E30.27569
G1 X112.52 Y116.602 E30.29136
G1 X112.833 Y116.567 E30.30707
G1 X113.13 Y116.472 E30.32263
G1 X113.405 Y116.322 E30.33826
G1 X113.647 Y116.119 E30.35402
G1 X113.843 Y115.873 E30.36971
G1 X113.988 Y115.593 E30.38544
G1 X114.073 Y115.295 E30.4009
G1 X114.102 Y114.98 E30.41668
G1 X114.065 Y114.667 E30.43241
G1 X113.972 Y114.37 E30.44794
G1 X113.821 Y114.095 E30.46359
G1 X113.618 Y113.853 E30.47935
G1 X113.372 Y113.657 E30.49504
G1 X113.092 Y113.512 E30.51077
G1 X113.045 Y113.498 E30.51322
G1 X112.794 Y113.427 E30.52505
G1 X112.48 Y113.398 E30.53735
G1 X112.167 Y113.435 E30.54981
G1 X111.965 Y113.498 E30.55952
G1 X111.87 Y113.528 E30.56449
G1 X111.595 Y113.679 E30.58014
G1 X111.353 Y113.882 E30.5959
G1 X111.157 Y114.128 E30.61159
G1 X111.012 Y114.408 E30.62732
G1 X110.927 Y114.706 E30.64278
G1 F2400 E29.64278
G1 Z0.375
G0 F1800 X105.873 Y121.157 Z0.375
G1 Z0.3
G1 F2400 E30.64278
G1 F900 X105.593 Y121.012 E30.65895
G1 X105.295 Y120.927 E30.67441
G1 X104.98 Y120.898 E30.69019
G1 X104.667 Y120.935 E30.70592
G1 X104.37 Y121.028 E30.72145
G1 X104.095 Y121.179 E30.7371
G1 X103.853 Y121.382 E30.75286
G1 X103.657 Y121.628 E30.76855
G1 X103.512 Y121.908 E30.78428
G1 X103.498 Y121.955 E30.78673
G1 X103.427 Y122.206 E30.79856
G1 X103.398 Y122.52 E30.81086
G1 X103.435 Y122.833 E30.82332
G1 X103.498 Y123.035 E30.83303
G1 X103.528 Y123.13 E30.838
G1 X103.679 Y123.405 E30.85365
G1 X103.882 Y123.647 E30.86941
G1 X104.128 Y123.843 E30.8851
G1 X104.408 Y123.988 E30.90083
G1 X104.706 Y124.073 E30.91629
G1 X105.019 Y124.102 E30.93198
G1 X105.334 Y124.065 E30.9478
G1 X105.631 Y123.972 E30.96333
G1 X105.906 Y123.821 E30.97898
G1 X106.148 Y123.618 E30.99474
G1 X106.344 Y123.372 E31.01043
G1 X106.488 Y123.093 E31.02609
G1 X106.575 Y122.793 E31.04168
G1 X106.602 Y122.48 E31.05735
G1 X106.567 Y122.167 E31.07306
G1 X106.472 Y121.87 E31.08862
G1 X106.322 Y121.595 E31.10425
G1 X106.119 Y121.353 E31.12001
G1 X105.873 Y121.157 E31.1357
G1 F2400 E30.1357
G1 Z0.375
G0 F1800 X111.595 Y128.678 Z0.375
G1 Z0.3
G1 F2400 E31.1357
G1 F900 X111.353 Y128.881 E31.1519
G1 X111.157 Y129.127 E31.16759
G1 X111.012 Y129.407 E31.18332
G1 X110.927 Y129.705 E31.19878
G1 X110.898 Y130.02 E31.21456
G1 X110.935 Y130.333 E31.23029
G1 X111.028 Y130.63 E31.24581
G1 X111.179 Y130.905 E31.26147
G1 X111.382 Y131.147 E31.27722
G1 X111.628 Y131.343 E31.29292
G1 X111.908 Y131.488 E31.30865
G1 X111.955 Y131.502 E31.31109
G1 X112.206 Y131.573 E31.32293
G1 X112.52 Y131.602 E31.33523
G1 X112.833 Y131.565 E31.34769
G1 X113.035 Y131.502 E31.3574
G1 X113.13 Y131.472 E31.36237
G1 X113.405 Y131.321 E31.37802
G1 X113.647 Y131.118 E31.39378
G1 X113.843 Y130.872 E31.40947
G1 X113.988 Y130.592 E31.4252
G1 X114.073 Y130.294 E31.44066
G1 X114.102 Y129.981 E31.45634
G1 X114.065 Y129.666 E31.47217
G1 X113.972 Y129.369 E31.48769
G1 X113.821 Y129.094 E31.50335
G1 X113.618 Y128.852 E31.5191
G1 X113.372 Y128.656 E31.5348
G1 X113.093 Y128.512 E31.55046
G1 X112.793 Y128.425 E31.56604
G1 X112.48 Y128.398 E31.58172
G1 X112.167 Y128.433 E31.59743
G1 X111.87 Y128.528 E31.61299
G1 X111.595 Y128.678 E31.62862
G1 F2400 E30.62862
G1 Z0.375
G0 F1800 X118.678 Y123.405 Z0.375
G1 Z0.3
G1 F2400 E31.62862
G1 F900 X118.881 Y123.647 E31.64481
G1 X119.127 Y123.843 E31.6605
G1 X119.407 Y123.988 E31.67624
G1 X119.705 Y124.073 E31.6917
G1 X120.02 Y124.102 E31.70748
G1 X120.333 Y124.065 E31.7232
G1 X120.63 Y123.972 E31.73873
G1 X120.905 Y123.821 E31.75438
G1 X121.147 Y123.618 E31.77014
G1 X121.343 Y123.372 E31.78583
G1 X121.488 Y123.092 E31.80156
G1 X121.502 Y123.045 E31.80401
G1 X121.573 Y122.794 E31.81585
G1 X121.602 Y122.48 E31.82815
G1 X121.565 Y122.167 E31.8406
G1 X121.502 Y121.965 E31.85031
G1 X121.472 Y121.87 E31.85528
G1 X121.321 Y121.595 E31.87093
G1 X121.118 Y121.353 E31.88669
G1 X120.872 Y121.157 E31.90239
G1 X120.592 Y121.012 E31.91812
G1 X120.294 Y120.927 E31.93358
G1 X119.981 Y120.898 E31.94926
G1 X119.666 Y120.935 E31.96508
G1 X119.369 Y121.028 E31.98061
G1 X119.094 Y121.179 E31.99626
G1 X118.852 Y121.382 E32.01202
G1 X118.656 Y121.628 E32.02771
G1 X118.512 Y121.907 E32.04338
G1 X118.425 Y122.207 E32.05896
G1 X118.398 Y122.52 E32.07463
G1 X118.433 Y122.833 E32.09035
G1 X118.528 Y123.13 E32.1059
G1 X118.678 Y123.405 E32.12153
G0 F1800 X119.01 Y123.178
;TYPE:WALL-OUTER
G1 F900 X119.162 Y123.359 E32.13332
G1 X119.346 Y123.506 E32.14507
G1 X119.555 Y123.614 E32.15681
G1 X119.779 Y123.678 E32.16843
G1 X120.015 Y123.7 E32.18026
G1 X120.249 Y123.672 E32.19202
G1 X120.472 Y123.602 E32.20368
G1 X120.678 Y123.489 E32.2154
G1 X120.859 Y123.337 E32.22719
G1 X121.006 Y123.153 E32.23894
G1 X121.114 Y122.944 E32.25068
G1 X121.178 Y122.72 E32.2623
G1 X121.2 Y122.485 E32.27407
G1 X121.172 Y122.251 E32.28583
G1 X121.102 Y122.028 E32.29749
G1 X120.989 Y121.822 E32.30922
G1 X120.837 Y121.641 E32.32101
G1 X120.653 Y121.494 E32.33276
G1 X120.444 Y121.386 E32.34449
G1 X120.22 Y121.322 E32.35612
G1 X119.986 Y121.3 E32.36784
G1 X119.75 Y121.328 E32.3797
G1 X119.527 Y121.398 E32.39136
G1 X119.321 Y121.511 E32.40308
G1 X119.14 Y121.663 E32.41487
G1 X118.993 Y121.847 E32.42662
G1 X118.885 Y122.056 E32.43836
G1 X118.82 Y122.28 E32.45
G1 X118.8 Y122.515 E32.46176
G1 X118.826 Y122.749 E32.47351
G1 X118.897 Y122.972 E32.48519
G1 X119.01 Y123.178 E32.49691
G0 F1800 X119.138 Y123.331
G1 F2400 E31.49691
G1 Z0.375
G0 F1800 X113.337 Y129.14 Z0.375
G1 Z0.3
G1 F2400 E32.49691
G1 F900 X113.153 Y128.993 E32.50924
G1 X112.944 Y128.885 E32.52098
G1 X112.72 Y128.82 E32.53261
G1 X112.485 Y128.8 E32.54438
G1 X112.251 Y128.826 E32.55612
G1 X112.028 Y128.897 E32.5678
G1 X111.822 Y129.01 E32.57952
G1 X111.641 Y129.162 E32.59131
G1 X111.494 Y129.346 E32.60306
G1 X111.386 Y129.555 E32.6148
G1 X111.322 Y129.779 E32.62642
G1 X111.3 Y130.015 E32.63825
G1 X111.328 Y130.249 E32.65001
G1 X111.398 Y130.472 E32.66167
G1 X111.511 Y130.678 E32.67339
G1 X111.663 Y130.859 E32.68518
G1 X111.847 Y131.006 E32.69693
G1 X112.056 Y131.114 E32.70867
G1 X112.28 Y131.178 E32.72029
G1 X112.515 Y131.2 E32.73207
G1 X112.749 Y131.172 E32.74382
G1 X112.972 Y131.102 E32.75548
G1 X113.178 Y130.989 E32.76721
G1 X113.359 Y130.837 E32.779
G1 X113.506 Y130.653 E32.79075
G1 X113.614 Y130.444 E32.80248
G1 X113.678 Y130.22 E32.81411
G1 X113.7 Y129.986 E32.82583
G1 X113.672 Y129.75 E32.83769
G1 X113.602 Y129.527 E32.84935
G1 X113.489 Y129.321 E32.86107
G1 X113.337 Y129.14 E32.87286
G0 F1800 X113.181 Y129.015
G1 F2400 E31.87286
G1 Z0.375
G0 F1800 X122.3 Y132.3 Z0.375
G1 Z0.3
G1 F2400 E32.87286
G1 F900 X102.7 Y132.3 E33.85072
G1 X102.7 Y112.7 E34.82857
G1 X122.3 Y112.7 E35.80642
G1 X122.3 Y132.3 E36.78426
G0 F1800 X122.1 Y132.3
G1 F2400 E35.78426
G1 Z0.375
G0 F1800 X113.178 Y115.99 Z0.375
G1 Z0.3
G1 F2400 E36.78426
G1 F900 X113.359 Y115.838 E36.79663
G1 X113.506 Y115.654 E36.80838
G1 X113.614 Y115.445 E36.82012
G1 X113.678 Y115.221 E36.83174
G1 X113.7 Y114.985 E36.84357
